X: 14
T: Blarney Pilgrim, The
Z: RheaP
S: https://thesession.org/tunes/5#setting46285
R: jig
M: 6/8
L: 1/8
K: Amin
|:e|AAA ABd|e2d efg|fed edB|dBe dBe|
AAA ABd|e2d efg|fed edB|dBA A2:|
|:e|a2a afd|eee fdB|faa afd|efe def|
aaa afd|eee fdB|f2d edB|dBA A2:|
|:z|[eA]A2 [fA]A2|[eA]3 efg|fed edB|dBe dBA|
eAA fAA|e3 efg|fed edB|dBA A2:|

